!!!OTL: KOMMT WIR WOLLEN UNS BEGEBEN
!!!ARE: Europa, Mitteleuropa, Deutschland
!!!SCT: B0680
!!!YEM: Copyright 1995, estate of Helmut Schaffrath.
**kern
*ICvox
*Ivox
*M2/4
*k[]
*C:
=1
{8.c
16G
16A
16B
16c
16d
=2
8c
8B}
{8.c
16G
=3
16A
16B
16c
16d
4B}
=4
{8.c
16G
16A
16B
16c
16d
=5
8c
8B}
{8.c
16G
=6
16A
16B
16c
16d
4B}
=7
{8.e
16c
8f
8e
=8
8d
8c
16B
16A
8G}
=9
{8.e
16c
8f
8e
=10
8d
8F#
4G}
=11
{8.G
16G
8.d
16G
=12
8.G
16G
8d
8G}
=13
{8c
8c
8.f
16e
=14
8d
8G
4e}
=15
{8c
8c
8.f
16e
=16
8d
8B
4c}
==
!!!AGN: Scherz - Lied, Maerchen
!!!ONB: ESAC (Essen Associative Code) Database: BOEHME
!!!AMT: simple duple
!!!AIN: vox
!!!EED: Helmut Schaffrath
!!!EEV: 1.0
*-
